app/dist/common/images/mitsubishi.svg

<svg height="18" width="18" xmlns="http://www.w3.org/2000/svg" xmlns:xlink="http://www.w3.org/1999/xlink"><linearGradient id="a" gradientUnits="userSpaceOnUse" x1="3.349" x2="21.904" y1="3.122" y2="24.434"><stop offset="0" stop-color="#1a1e21"/><stop offset="1" stop-color="#06060a"/></linearGradient><path d="m0 0h18v18h-18z" fill="url(#a)"/><path d="m5.667 9.906h3.333l-1.667 3.094h-3.333zm6.666 0h-3.333l1.667 3.094h3.333zm-3.333 0 1.667-2.953-1.667-2.953-1.667 2.953z" fill="#ea1342"/></svg>

<!-- by TradingView --><svg width="18" height="18" xmlns="http://www.w3.org/2000/svg"><path fill="url(#paint0_linear)" d="M0 0h18v18H0z"/><path d="M5.667 9.906H9L7.333 13H4l1.667-3.094zM12.333 9.906H9L10.667 13H14l-1.667-3.094zM9 9.906l1.667-2.953L9 4 7.333 6.953 9 9.906z" fill="#EA1342"/><defs><linearGradient id="paint0_linear" x1="3.349" y1="3.122" x2="21.904" y2="24.434" gradientUnits="userSpaceOnUse"><stop stop-color="#1A1E21"/><stop offset="1" stop-color="#06060A"/></linearGradient></defs></svg>
